X:1
T:Partition sans titre
C:Compositeur / Arrangeur
L:1/4
M:4/4
I:linebreak $
K:D
V:1 treble nm="Violon" snm="Vln."
V:1
"D" d d"G" B/c/d/B/ |"D" A F E D | d d"G" B/c/d/B/ |"D" A F"A" E2 |"D" d d"G" B/c/d/B/ | %5
"D" A F A d | f d"A" e c |"D" d2 d2 ::"D" f d d e/f/ |"G" g f e d |"D" f d d e/f/ |"G" g f"A" a2 | %12
"D" f d d e/f/ |"G" g f e d |"D" f d"A" e c |"D" d2 d2 :| %16
